rospo-dark/16x16/actions/call-start.svg

<svg height="16" viewBox="0 0 16 16" width="16" xmlns="http://www.w3.org/2000/svg"><path d="m9.9980469 1.0039062c-.55401 0-1 .4459901-1 1v2c0 .55401.44599 1 1 1h .4687501c-.9039001 2.5569001-2.9118501 4.56487-5.4687501 5.4687498v-.46875c0-.5539997-.446-.9999998-1-.9999998h-2c-.554 0-1.00000002.4460001-1.00000002.9999998v3c0 .554.42392002 1 .96875002 1h .03125c6.6168 0 11.9829001-5.3559497 12.0000001-11.9687498v-.0625c0-.5417599-.43472-.96875-.96875-.96875z" fill="#d3dae3"/></svg>

<?xml version="1.0" encoding="UTF-8" standalone="no"?>
<svg xmlns="http://www.w3.org/2000/svg" width="22" height="22" viewBox="0 0 22 22">
 <defs>
  <style type="text/css" id="current-color-scheme">
   .ColorScheme-Text { color:#d3dae3; } .ColorScheme-Highlight { color:#5294e2; }
  </style>
 </defs>
 <path style="fill:currentColor;opacity:1" class="ColorScheme-Text" transform="translate(3 3)" d="M 9.9980469 1.0039062 C 9.4440369 1.0039062 8.9980469 1.4498963 8.9980469 2.0039062 L 8.9980469 4.0039062 C 8.9980469 4.5579162 9.4440369 5.0039062 9.9980469 5.0039062 L 10.466797 5.0039062 C 9.5628969 7.5608063 7.5549469 9.5687762 4.9980469 10.472656 L 4.9980469 10.003906 C 4.9980469 9.4499063 4.5520469 9.0039062 3.9980469 9.0039062 L 1.9980469 9.0039062 C 1.4440469 9.0039062 0.99804688 9.4499063 0.99804688 10.003906 L 0.99804688 13.003906 C 0.99804688 13.557906 1.4219669 14.003906 1.9667969 14.003906 L 1.9980469 14.003906 C 8.6148469 14.003906 13.980947 8.6479563 13.998047 2.0351562 L 13.998047 1.9726562 C 13.998047 1.4308963 13.563327 1.0039062 13.029297 1.0039062 L 9.9980469 1.0039062 z"/>
</svg>
